src/library/svgl/after-effects/after-effects-light.svg

<svg width="83" height="80" viewBox="0 0 83 80" fill="none" xmlns="http://www.w3.org/2000/svg">
<g clip-path="url(#clip0_912_9)">
<path d="M67.5214 0H14.5299C6.50526 0 0 6.50526 0 14.5299V65.4701C0 73.4947 6.50526 80 14.5299 80H67.5214C75.546 80 82.0513 73.4947 82.0513 65.4701V14.5299C82.0513 6.50526 75.546 0 67.5214 0Z" fill="#00005B"/>
<path d="M32.9624 47.8634H20.2474L17.6604 55.915C17.6252 56.0616 17.54 56.1913 17.4194 56.2817C17.2988 56.3721 17.1504 56.4177 16.9999 56.4104H10.5599C10.1927 56.4104 10.0642 56.2086 10.1746 55.805L21.1832 24.2314C21.2932 23.9012 21.4034 23.5783 21.5134 23.156C21.6576 22.4216 21.7313 21.6752 21.7336 20.9268C21.7261 20.8745 21.731 20.8212 21.7477 20.771C21.7644 20.7209 21.7926 20.6753 21.83 20.6379C21.8674 20.6005 21.9129 20.5723 21.9631 20.5556C22.0132 20.5389 22.0666 20.534 22.1189 20.5415H30.8708C31.127 20.5415 31.2738 20.6332 31.3111 20.8168L43.8058 55.86C43.9158 56.2272 43.8057 56.4107 43.4756 56.4104H36.32C36.1971 56.4241 36.0734 56.3925 35.9721 56.3216C35.8708 56.2507 35.7988 56.1453 35.7696 56.0251L32.9624 47.8634ZM22.2291 41.0745H30.9258C30.7056 40.3409 30.4487 39.5152 30.1551 38.5975C29.861 37.6807 29.5491 36.6991 29.2194 35.6527C28.8892 34.607 28.559 33.5611 28.2287 32.5153C27.8985 31.4695 27.5957 30.4604 27.3204 29.4879C27.0453 28.5161 26.7976 27.6263 26.5774 26.8184H26.5223C26.2126 28.305 25.8268 29.7747 25.3664 31.2218C24.8521 32.8731 24.3292 34.5611 23.7977 36.2857C23.2654 38.011 22.7425 39.6072 22.2291 41.0745Z" fill="#9999FF"/>
<path d="M64.0619 44.7295H53.2185C53.3513 45.8024 53.7076 46.8355 54.2644 47.7622C54.8799 48.6798 55.7504 49.3973 56.7687 49.8263C58.1487 50.4234 59.6413 50.716 61.1447 50.684C62.3374 50.6611 63.5256 50.5306 64.6949 50.2942C65.7407 50.153 66.7656 49.8858 67.7473 49.4985C67.9304 49.3523 68.0226 49.4435 68.0226 49.7737V55.0028C68.0316 55.1452 68.0031 55.2876 67.9399 55.4156C67.8769 55.5157 67.7923 55.6003 67.6922 55.6632C66.6033 56.1456 65.4574 56.4869 64.2821 56.6791C62.6854 56.979 61.0627 57.1173 59.4383 57.092C56.8323 57.092 54.6489 56.6883 52.8882 55.881C51.2236 55.1477 49.7535 54.0357 48.5949 52.6335C47.5127 51.3123 46.7077 49.7866 46.228 48.1475C45.753 46.5297 45.512 44.8522 45.5125 43.1661C45.5074 41.3251 45.7954 39.4949 46.3657 37.7444C46.9149 36.0369 47.7834 34.4492 48.9252 33.0658C50.0513 31.6985 51.4595 30.5908 53.0534 29.8182C54.6677 29.0296 56.5761 28.7466 58.7778 28.7466C60.6037 28.7005 62.4173 29.0576 64.0894 29.7924C65.4955 30.3921 66.7333 31.3269 67.6947 32.5153C68.5965 33.679 69.2859 34.9927 69.7313 36.3959C70.165 37.7481 70.3878 39.1591 70.3918 40.5791C70.3918 41.3867 70.3643 42.1206 70.3092 42.7808C70.2543 43.4413 70.2084 43.9183 70.1716 44.2119C70.1574 44.3333 70.099 44.4452 70.0077 44.5263C69.9163 44.6075 69.7984 44.6523 69.6762 44.6523C69.456 44.6523 69.0799 44.6798 68.5479 44.7349C68.0155 44.7899 67.355 44.8266 66.5664 44.8449C65.7768 44.8638 64.9426 44.7295 64.0619 44.7295ZM53.2185 39.7153H60.4291C61.3098 39.7153 61.9611 39.7061 62.383 39.6878C62.6654 39.6595 62.938 39.5692 63.1813 39.4232V39.0929C63.1702 38.6624 63.096 38.2359 62.9611 37.827C62.6641 36.8879 62.0671 36.0723 61.2616 35.5055C60.4561 34.9387 59.4869 34.652 58.5027 34.6895C57.5764 34.6335 56.6538 34.8483 55.8474 35.3077C55.0411 35.7671 54.3858 36.4511 53.9616 37.2765C53.5845 38.0442 53.3336 38.8677 53.2185 39.7153Z" fill="#9999FF"/>
</g>
<defs>
<clipPath id="clip0_912_9">
<rect width="82.0513" height="80" fill="white"/>
</clipPath>
</defs>
</svg>

<svg width="83" height="80" viewBox="0 0 83 80" fill="none" xmlns="http://www.w3.org/2000/svg"><g clip-path="url(#a)"><path d="M67.521 0H14.53C6.505 0 0 6.505 0 14.53v50.94C0 73.495 6.505 80 14.53 80h52.99c8.025 0 14.53-6.505 14.53-14.53V14.53C82.051 6.505 75.546 0 67.521 0" fill="#00005B"/><path d="M32.962 47.863H20.247l-2.587 8.052a.65.65 0 0 1-.66.495h-6.44q-.551 0-.385-.605l11.008-31.574c.11-.33.22-.653.33-1.075.145-.734.218-1.48.22-2.23a.34.34 0 0 1 .386-.384h8.752q.384 0 .44.275L43.806 55.86q.165.55-.33.55H36.32a.51.51 0 0 1-.55-.385zM22.23 41.075h8.697q-.33-1.101-.77-2.478-.442-1.374-.937-2.944l-.99-3.138a106 106 0 0 1-.909-3.027q-.412-1.458-.743-2.67h-.055a44 44 0 0 1-1.156 4.404q-.771 2.477-1.568 5.064a136 136 0 0 1-1.569 4.788m41.832 3.656H53.219a7.7 7.7 0 0 0 1.045 3.032 5.66 5.66 0 0 0 2.505 2.064c1.38.597 2.872.89 4.376.858a20 20 0 0 0 3.55-.39 13 13 0 0 0 3.052-.795q.275-.221.276.275v5.229a.8.8 0 0 1-.083.413.8.8 0 0 1-.248.247 14 14 0 0 1-3.41 1.016c-1.597.3-3.22.438-4.844.413q-3.91 0-6.55-1.211a11.7 11.7 0 0 1-4.293-3.248 12.7 12.7 0 0 1-2.367-4.486 17.7 17.7 0 0 1-.715-4.98 17.4 17.4 0 0 1 .853-5.423 14.2 14.2 0 0 1 2.56-4.678 12.3 12.3 0 0 1 4.127-3.248c1.615-.788 3.523-1.071 5.725-1.071 1.826-.046 3.64.31 5.311 1.045a9.36 9.36 0 0 1 3.606 2.723 12.5 12.5 0 0 1 2.036 3.88c.434 1.353.657 2.764.66 4.184q0 1.212-.082 2.202t-.137 1.43a.5.5 0 0 1-.496.441q-.33 0-1.128.083t-1.982.11c-.79.019-1.623-.115-2.504-.115m-10.843-5.015h7.21q1.32 0 1.954-.027c.282-.029.555-.119.798-.265v-.33a4.4 4.4 0 0 0-.22-1.266 4.496 4.496 0 0 0-4.458-3.137 4.78 4.78 0 0 0-4.541 2.587 8 8 0 0 0-.744 2.438" fill="#99F"/></g><defs><clipPath id="a"><path fill="#fff" d="M0 0h82.051v80H0z"/></clipPath></defs></svg>
